X: 3209
T: Beeswing, The
R: hornpipe
M: 4/4
K: Gmajor
|:FA|BfdB AecA|FdBF DBFD|EGce DFBd|(3cdc (3BAG F2GA|
Bfdb Afca|EBGe DBFd|EGce dcBA|c2B2 B2:|
|:fe|dBfd bfdB|cAfc afcA|GEBG ecdB|(3cdc (3BAG F2GA|
Bfdb Afca|EBGe DBFd|EGce dcBA|c2B2 B2:|

